dist/img/icons/what-orange.svg

<svg width="14" height="14" viewBox="0 0 14 14" fill="none" xmlns="http://www.w3.org/2000/svg">
<path d="M6.92005 3.66536C8.28894 3.66536 8.94672 4.53648 8.94672 5.37203C8.94672 6.40314 8.28005 7.02536 7.2045 7.42536L7.18672 8.18092H6.26228L6.28005 7.00759C7.38228 6.54536 7.98672 6.24314 7.98672 5.40759C7.98672 4.92759 7.56005 4.5187 6.84894 4.5187C6.30672 4.5187 5.83561 4.74981 5.48894 5.19425L4.77783 4.77648C5.25783 4.07425 5.96894 3.66536 6.92005 3.66536Z" fill="#FF5500"/>
<path d="M6.20969 10.0301V8.99902H7.24333V10.0301H6.20969Z" fill="#FF5500"/>
<path fill-rule="evenodd" clip-rule="evenodd" d="M7.00004 13.6654C3.31814 13.6654 0.333374 10.6806 0.333374 6.9987C0.333374 3.3168 3.31814 0.332031 7.00004 0.332031C10.6819 0.332031 13.6667 3.3168 13.6667 6.9987C13.6667 10.6806 10.6819 13.6654 7.00004 13.6654ZM7.0033 12.5543C10.0715 12.5543 12.5589 10.0669 12.5589 6.9987C12.5589 3.93045 10.0715 1.44314 7.0033 1.44314C3.93505 1.44314 1.44774 3.93045 1.44774 6.9987C1.44774 10.0669 3.93505 12.5543 7.0033 12.5543Z" fill="#FF5500"/>
</svg>

<svg width="14" height="14" fill="none" xmlns="http://www.w3.org/2000/svg"><path d="M6.92 3.665c1.369 0 2.027.871 2.027 1.707 0 1.031-.667 1.653-1.742 2.053l-.018.756h-.925l.018-1.173c1.102-.463 1.707-.765 1.707-1.6 0-.48-.427-.89-1.138-.89-.542 0-1.013.232-1.36.676l-.711-.418c.48-.702 1.19-1.11 2.142-1.11zm-.71 6.365V9h1.033v1.031H6.21z" fill="#F50"/><path fill-rule="evenodd" clip-rule="evenodd" d="M7 13.665A6.667 6.667 0 117 .332a6.667 6.667 0 010 13.333zm.003-1.11a5.556 5.556 0 100-11.112 5.556 5.556 0 000 11.111z" fill="#F50"/></svg>
